src/bag.svg

<?xml version="1.0" encoding="utf-8"?>
<!-- Generated by IcoMoon.io -->
<!DOCTYPE svg PUBLIC "-//W3C//DTD SVG 1.1//EN" "http://www.w3.org/Graphics/SVG/1.1/DTD/svg11.dtd">
<svg version="1.1" xmlns="http://www.w3.org/2000/svg" xmlns:xlink="http://www.w3.org/1999/xlink" width="512" height="512" viewBox="0 0 512 512">
<path fill="#000000" d="M448 160h-64v-4.5c0-68.5-55-123.5-123.5-123.5h-8c-68.5 0-124.5 55-124.5 123.5v4.5h-64l-32 320h448l-32-320zM160 155.5c0-50.7 41.8-91.5 92.5-91.5h8c50.7 0 91.5 40.8 91.5 91.5v4.5h-192v-4.5zM67.8 448l24.9-256h35.3v36.3c-9.6 5.5-16 15.9-16 27.7 0 17.7 14.3 32 32 32s32-14.3 32-32c0-11.8-6.4-22.2-16-27.7v-36.3h192v36.3c-9.6 5.5-16 15.9-16 27.7 0 17.7 14.3 32 32 32s32-14.3 32-32c0-11.8-6.4-22.2-16-27.7v-36.3h35.4l24.9 256h-376.5z"></path>
</svg>

<?xml version="1.0" encoding="utf-8"?>
<!-- Generator: Adobe Illustrator 16.2.1, SVG Export Plug-In . SVG Version: 6.00 Build 0)  -->
<!DOCTYPE svg PUBLIC "-//W3C//DTD SVG 1.1//EN" "http://www.w3.org/Graphics/SVG/1.1/DTD/svg11.dtd">
<svg version="1.1" id="Layer_1" xmlns="http://www.w3.org/2000/svg" xmlns:xlink="http://www.w3.org/1999/xlink" x="0px" y="0px"
	 width="512px" height="512px" viewBox="0 0 512 512" style="enable-background:new 0 0 512 512;" xml:space="preserve">
<path d="M448,160h-64v-4.5C384,87,329,32,260.5,32h-8C184,32,128,87,128,155.5v4.5H64L32,480h448L448,160z M160,155.5
	c0-50.7,41.8-91.5,92.5-91.5h7.5h0.5c50.7,0,91.5,40.8,91.5,91.5v4.5H160V155.5z M67.8,448l24.9-256H128v36.3
	c-9.6,5.5-16,15.9-16,27.7c0,17.7,14.3,32,32,32s32-14.3,32-32c0-11.8-6.4-22.2-16-27.7V192h192v36.3c-9.6,5.5-16,15.9-16,27.7
	c0,17.7,14.3,32,32,32s32-14.3,32-32c0-11.8-6.4-22.2-16-27.7V192h35.4l24.9,256H67.8z"/>
</svg>
